evolvere-2-blue/devices/24/ipod.svg

<?xml version="1.0" encoding="UTF-8"?>
<!-- Created with Inkscape (http://www.inkscape.org/) -->
<svg width="24" height="24" version="1.1" xmlns="http://www.w3.org/2000/svg" xmlns:cc="http://creativecommons.org/ns#" xmlns:dc="http://purl.org/dc/elements/1.1/" xmlns:rdf="http://www.w3.org/1999/02/22-rdf-syntax-ns#">
	<defs>
		<style id="current-color-scheme" type="text/css">.ColorScheme-Text {color:#090d11;}.ColorScheme-Background{color:#ffffff;}</style>
	</defs>
	<metadata>
		<rdf:RDF>
			<cc:Work rdf:about="">
				<dc:format>image/svg+xml</dc:format>
				<dc:type rdf:resource="http://purl.org/dc/dcmitype/StillImage"/>
			</cc:Work>
		</rdf:RDF>
	</metadata>
	<g transform="translate(9379.3 -4835.2)">
		<path id="f" class="ColorScheme-Text" transform="translate(-9379.3 4835.2)" d="m6 4c-0.554 0-1 0.446-1 1v14c0 0.554 0.446 1 1 1h12c0.554 0 1-0.446 1-1v-14c0-0.554-0.446-1-1-1zm1.5 2h9c0.277 0 0.5 0.223 0.5 0.5s-0.223 0.5-0.5 0.5h-9c-0.277 0-0.5-0.223-0.5-0.5s0.223-0.5 0.5-0.5zm4.5 2c2.7614 0 5 2.2386 5 5s-2.2386 5-5 5-5-2.2386-5-5 2.2386-5 5-5zm0 3c-1.1046 0-2 0.8954-2 2s0.8954 2 2 2 2-0.8954 2-2-0.8954-2-2-2z" style="fill-opacity:.75;fill:currentColor"/>
		<path id="h" class="ColorScheme-Background" transform="translate(-9379.3 4835.2)" d="m6 3c-1.0907 0-2 0.9093-2 2v14c0 1.0907 0.9093 2 2 2h12c1.0907 0 2-0.9093 2-2v-14c0-1.0907-0.9093-2-2-2zm0 1h12c0.554 0 1 0.446 1 1v14c0 0.554-0.446 1-1 1h-12c-0.554 0-1-0.446-1-1v-14c0-0.554 0.446-1 1-1zm1.5 2c-0.277 0-0.5 0.223-0.5 0.5s0.223 0.5 0.5 0.5h9c0.277 0 0.5-0.223 0.5-0.5s-0.223-0.5-0.5-0.5zm4.5 2c-2.7614 0-5 2.2386-5 5s2.2386 5 5 5 5-2.2386 5-5-2.2386-5-5-5zm0 1.1875c2.1129 0 3.8125 1.6996 3.8125 3.8125s-1.6996 3.8125-3.8125 3.8125-3.8125-1.6996-3.8125-3.8125 1.6996-3.8125 3.8125-3.8125zm0 0.625c-1.7531 0-3.1875 1.4344-3.1875 3.1875s1.4344 3.1875 3.1875 3.1875 3.1875-1.4344 3.1875-3.1875-1.4344-3.1875-3.1875-3.1875zm0 1.1875c1.1046 0 2 0.8954 2 2s-0.8954 2-2 2-2-0.8954-2-2 0.8954-2 2-2z" style="fill-opacity:.5;fill:currentColor"/>
	</g>
</svg>

<?xml version="1.0" encoding="UTF-8" standalone="no"?>
<!-- Created with Inkscape (http://www.inkscape.org/) -->

<svg
   xmlns:dc="http://purl.org/dc/elements/1.1/"
   xmlns:cc="http://creativecommons.org/ns#"
   xmlns:rdf="http://www.w3.org/1999/02/22-rdf-syntax-ns#"
   xmlns:svg="http://www.w3.org/2000/svg"
   xmlns="http://www.w3.org/2000/svg"
   xmlns:sodipodi="http://sodipodi.sourceforge.net/DTD/sodipodi-0.dtd"
   xmlns:inkscape="http://www.inkscape.org/namespaces/inkscape"
   width="24"
   height="24"
   id="svg13094"
   version="1.1"
   inkscape:version="0.48.3.1 r9886"
   sodipodi:docname="ipod.svg">
  <sodipodi:namedview
     id="base"
     pagecolor="#ffffff"
     bordercolor="#666666"
     borderopacity="1.0"
     inkscape:pageopacity="0.0"
     inkscape:pageshadow="2"
     inkscape:zoom="32"
     inkscape:cx="10.372009"
     inkscape:cy="11.172634"
     inkscape:document-units="px"
     inkscape:current-layer="layer1"
     showgrid="true"
     inkscape:snap-bbox="true"
     inkscape:bbox-paths="true"
     inkscape:bbox-nodes="true"
     inkscape:snap-bbox-edge-midpoints="true"
     inkscape:snap-bbox-midpoints="true"
     inkscape:object-paths="true"
     inkscape:snap-intersection-paths="true"
     inkscape:object-nodes="true"
     inkscape:snap-smooth-nodes="true"
     inkscape:snap-midpoints="true"
     inkscape:snap-object-midpoints="true"
     inkscape:snap-center="true"
     showguides="false"
     inkscape:guide-bbox="true"
     inkscape:window-width="1920"
     inkscape:window-height="1023"
     inkscape:window-x="-10"
     inkscape:window-y="35"
     inkscape:window-maximized="1"
     inkscape:snap-global="true"
     fit-margin-top="0"
     fit-margin-left="0"
     fit-margin-right="0"
     fit-margin-bottom="0"
     showborder="true"
     inkscape:showpageshadow="false">
    <sodipodi:guide
       orientation="0,1"
       position="-25.000005,930.61286"
       id="guide4700" />
    <sodipodi:guide
       orientation="0,1"
       position="576.71887,328.89388"
       id="guide4702" />
    <sodipodi:guide
       orientation="1,0"
       position="576.71899,489.70395"
       id="guide4706" />
    <sodipodi:guide
       orientation="1,0"
       position="54.999996,930.61286"
       id="guide4708" />
    <sodipodi:guide
       orientation="0,1"
       position="-25.000005,850.61296"
       id="guide4710" />
    <sodipodi:guide
       orientation="0,1"
       position="536.71887,408.8938"
       id="guide4712" />
    <sodipodi:guide
       orientation="1,0"
       position="496.71887,408.8938"
       id="guide4714" />
    <inkscape:grid
       type="xygrid"
       id="grid3216"
       empspacing="5"
       visible="true"
       enabled="true"
       snapvisiblegridlinesonly="true"
       originx="-24.999951px"
       originy="-219.00005px" />
    <sodipodi:guide
       orientation="-0.70710664,0.70710692"
       position="4.0000502,-246.00005"
       id="guide3847" />
    <sodipodi:guide
       orientation="0.70710594,0.70710762"
       position="5.0000502,-245.00005"
       id="guide3849" />
    <sodipodi:guide
       orientation="-0.70710681,0.70710676"
       position="7.0000502,-212.00005"
       id="guide3851" />
  </sodipodi:namedview>
  <defs
     id="defs13096" />
  <metadata
     id="metadata13099">
    <rdf:RDF>
      <cc:Work
         rdf:about="">
        <dc:format>image/svg+xml</dc:format>
        <dc:type
           rdf:resource="http://purl.org/dc/dcmitype/StillImage" />
        <dc:title />
      </cc:Work>
    </rdf:RDF>
  </metadata>
  <g
     transform="translate(9379.308,-4835.1988)"
     id="layer1"
     inkscape:groupmode="layer"
     inkscape:label="Camada 1">
    <path
       inkscape:connector-curvature="0"
       style="color:#000000;fill:#27303a;fill-opacity:0.753280819999999968;fill-rule:nonzero;stroke:none;stroke-width:57.8928833;marker:none;visibility:visible;display:inline;overflow:visible;enable-background:accumulate"
       d="m -9373.308,4839.1988 c -0.554,0 -1,0.446 -1,1 l 0,14 c 0,0.554 0.446,1 1,1 l 12,0 c 0.554,0 1,-0.446 1,-1 l 0,-14 c 0,-0.554 -0.446,-1 -1,-1 l -12,0 z m 1.5,2 9,0 c 0.277,0 0.5,0.223 0.5,0.5 0,0.277 -0.223,0.5 -0.5,0.5 l -9,0 c -0.277,0 -0.5,-0.223 -0.5,-0.5 0,-0.277 0.223,-0.5 0.5,-0.5 z m 4.5,2 c 2.7614,0 5,2.2386 5,5 0,2.7614 -2.2386,5 -5,5 -2.7614,0 -5,-2.2386 -5,-5 0,-2.7614 2.2386,-5 5,-5 z m 0,3 c -1.1046,0 -2,0.8954 -2,2 0,1.1046 0.8954,2 2,2 1.1046,0 2,-0.8954 2,-2 0,-1.1046 -0.8954,-2 -2,-2 z"
       id="path3797" />
    <path
       style="font-size:medium;font-style:normal;font-variant:normal;font-weight:normal;font-stretch:normal;text-indent:0;text-align:start;text-decoration:none;line-height:normal;letter-spacing:normal;word-spacing:normal;text-transform:none;direction:ltr;block-progression:tb;writing-mode:lr-tb;text-anchor:start;baseline-shift:baseline;color:#000000;fill:#f1f3f5;fill-opacity:0.90288714000000003;fill-rule:nonzero;stroke:none;stroke-width:2;marker:none;visibility:visible;display:inline;overflow:visible;enable-background:accumulate;font-family:Sans;-inkscape-font-specification:Sans"
       d="M 6 3 C 4.9093 3 4 3.9093 4 5 L 4 19 C 4 20.0907 4.9093 21 6 21 L 18 21 C 19.0907 21 20 20.0907 20 19 L 20 5 C 20 3.9093 19.0907 3 18 3 L 6 3 z M 6 4 L 18 4 C 18.554 4 19 4.446 19 5 L 19 19 C 19 19.554 18.554 20 18 20 L 6 20 C 5.446 20 5 19.554 5 19 L 5 5 C 5 4.446 5.446 4 6 4 z M 7.5 6 C 7.223 6 7 6.223 7 6.5 C 7 6.777 7.223 7 7.5 7 L 16.5 7 C 16.777 7 17 6.777 17 6.5 C 17 6.223 16.777 6 16.5 6 L 7.5 6 z M 12 8 C 9.2386 8 7 10.2386 7 13 C 7 15.7614 9.2386 18 12 18 C 14.7614 18 17 15.7614 17 13 C 17 10.2386 14.7614 8 12 8 z M 12 9.1875 C 14.1129 9.1875 15.8125 10.8871 15.8125 13 C 15.8125 15.1129 14.1129 16.8125 12 16.8125 C 9.8871 16.8125 8.1875 15.1129 8.1875 13 C 8.1875 10.8871 9.8871 9.1875 12 9.1875 z M 12 9.8125 C 10.2469 9.8125 8.8125 11.2469 8.8125 13 C 8.8125 14.7531 10.2469 16.1875 12 16.1875 C 13.7531 16.1875 15.1875 14.7531 15.1875 13 C 15.1875 11.2469 13.7531 9.8125 12 9.8125 z M 12 11 C 13.1046 11 14 11.8954 14 13 C 14 14.1046 13.1046 15 12 15 C 10.8954 15 10 14.1046 10 13 C 10 11.8954 10.8954 11 12 11 z "
       transform="translate(-9379.308,4835.1988)"
       id="path3003" />
  </g>
</svg>
